X: 33
T:Primrose Lass, The
M:C|
Q:120
S:THSP
R:reel
K:G
"G"~B3A ~G3E|DEGA "C"BA~A2|"G"(3Bcd BA "C"~G3E|"D"DEGA "G"BG~G2:|:
"G"(3Bcd gd edgd|(3Bcd gd "D"BA~A2
|1 "G"(3Bcd gd "C"edgd|"D"B2Ac "G"BG~G2:|2 "G"(3Bcd ef "C"~g3e|"D"dBAc "
G"BG~GA|]
